!!!!SEGMENT: pl-cz--ii-87--005-003_hanel--missae-kirie-credo.krn
!!!cenid: 18xx:1200
!!!COM: Hanel
!!!COM-rismID: pe30017835
!!!CDT: ~1800-~1899
!!!CNT:
!!!OPR: Missae Kirie
!!!OTL: Credo
!!!OMV: 003
!!!PDT: 1888
!!!AGN: Sacred; Mass
!!!SMS-siglum: PL-CZ
!!!SMS-shelfmark: II-87
!!!SMS-shelfwork: 005-003 M
!!!SMS-variant:
!!!SMS-altvar:
!!!NIFC-rismSourceID: 300033228
!!!NIFC-islandoraID: pl-cz:33881
!!!URL-pdf-islandora: https://repozytorium.nifc.pl/islandora/object/pl-cz%3A33881/datastream/PDF/view
!!!URL-scan:
!!!ONB-nifc: UWAGA: części Mszy: Kirie, Gloria, Credo, Sanctus, Benedictus, Agnus
!!!OMD: Maestoso
!!!AIN: 1 organ 1 vox
!!!key: B-
**kern	**kern	**text	**dynam
*part2	*part1	*part1	*part1
*staff2	*staff1	*staff1	*
*I"Organo	*I"Voce	*	*
*Iorgan	*Ivox	*	*
*ICklav	*ICvox	*	*
*clefF4	*clefG2	*	*
*k[b-e-]	*k[b-e-]	*	*
*B-:	*B-:	*	*
*M4/4	*M4/4	*	*
*met(c)	*met(c)	*	*
=1	=1	=1	=1
!	!	!	!LO:DY:b:rj
2.BB-\ 2.B-\	2.d/ 2.f/ 2.b-/	.	f
4F\	4f/	.	.
=2	=2	=2	=2
4D\	4d/	.	.
4BB-\	4B-/	.	.
4D\	4d/	.	.
4F\	4f/	.	.
=3||	=3||	=3||	=3||
2BB-\ 2B-\	2d/ 2f/ 2b-/	Pa-	.
2FF\ 2F\	2e-/ 2f/ 2a/	-trem	.
=4	=4	=4	=4
*	*^	*	*
2BB-\ 2B-\	(>4b-/	2d\ 2f\	o-	.
.	4dd/)	.	.	.
4E-\	4cc/	4c\ 4g\	-mni-	.
4En\	4c/ 4g/ 4b-/	4ryy	-po-	.
*	*v	*v	*	*
=5	=5	=5	=5
2F\	2c/ 2f/ 2a/	-ten-	.
2C\ 2B-\	2c/ 2en/ 2g/	.	.
=6	=6	=6	=6
4F\ 4A\	4c/ 4f/	-tem	.
4F\	4f/	.	.
4A\	4a/	fac-	.
4B-\	4b-/	.	.
=7	=7	=7	=7
2C\ 2c\	2e-/ 2g/ 2cc/	-to-	.
2GG\ 2G\	2f/ 2g/ 2bn/	-rem	.
!!LO:LB:g=original
=8	=8	=8	=8
*	*^	*	*
2CC/ 2C/	(>4cc/	2e-\ 2g\	ce-	.
.	4ee-/)	.	.	.
4DD/ 4D/	4f/ 4g/ 4b-/ 4dd/	2ryy	-li	.
4EE-/ 4E-/	4e-/ 4g/ 4cc/	.	et	.
*	*v	*v	*	*
=9	=9	=9	=9
[<2FF/ [>2F/	2f/ 2b-/	ter-	.
2FF/] 2F/]	2e-/ 2f/ 2a/	.	.
=10	=10	=10	=10
2BB-\ 2B-\	2d/ 2f/ 2b-/	-rae	.
!	!	!	!LO:DY:a:rj
2r	4.f/	.	p
.	8f/	.	.
=11	=11	=11	=11
2B-\	2b-\ 2dd\	Et	.
2d\	2b-\ 2dd\	in	.
=12	=12	=12	=12
*	*^	*	*
2f\	2b-\	2cc/	Je-	.
2F\	2a\	2cc/	-sum	.
*	*v	*v	*	*
=13	=13	=13	=13
(>2G\	1g/ 1b-/	Chris-	.
2B-\)	.	.	.
=14	=14	=14	=14
4d\	4f#X/ 4a/	-tum	.
4r	4d/	Fi-	.
2r	4f#/	-li-	.
.	4a/	-um	.
!!LO:LB:g=original
=15	=15	=15	=15
2G\	2d/ 2g/ 2b-/	De-	.
2F\	2d/ 2g/ 2bn/	-i	.
=16	=16	=16	=16
2E-\	2c/ 2g/ 2cc/	u-	.
(>4D\	(>4g/ 4bn/ 4dd/	-ni-	.
4C\)	4g/) 4cc/ 4ee-/	.	.
=17	=17	=17	=17
2D\	2g/ 2b-X/ 2dd/	-ge-	.
2DD/ 2D/	2c/ 2d/ 2f#X/	-ni-	.
=18	=18	=18	=18
2GG\ 2G\	2B-/ 2d/ 2b-/	-tum	.
4r	4r	.	.
4F/	4f/	Qui	.
=19	=19	=19	=19
2BB-\ 2B-\	2d/ 2f/ 2b-/	prop-	.
2FF\ 2F\	2f/ 2a/ 2cc/	-ter	.
=20	=20	=20	=20
2.BB-\ 2.B-\	(<4.d/ [>4.f/ (>4.dd/	no-	.
.	8e-/) 8f/] 8cc/)	.	.
.	4d/ 4f/ 4b-/	-stram	.
4BB-\ 4B-\	4f/ 4b-/ 4dd/	sa-	.
=21	=21	=21	=21
(>2AA\ 2A\	(>2f\ 2cc\	-lu-	.
4GG\ 4G\	4b-\ 4dd\	.	.
4C\) 4c\	4g\) 4b-\ 4een\	.	.
=22	=22	=22	=22
2FF\ 2F\	2f\ 2a\ 2ff\	-tem	.
4GG\ 4G\	4r	.	.
4AA\ 4A\	4f\ 4cc\ 4ee-\	des-	.
!!LO:PB:g=original
=23	=23	=23	=23
2BB-\ 2B-\	2g/ 2b-/ 2dd/	-cen-	.
4AA\ 4A\	4f\ 4a\ 4cc\	-dit	.
4AA-X\ 4A-X\	4f\ 4b-\ 4dd\	des-	.
=24	=24	=24	=24
*	*^	*	*
2GG\ 2G\	2ee-/	2e-\ 2b-\	-cen-	.
4GG\ 4G\	4ee-\	4e-\ 4b-\	-dit	.
4GG-X\ 4G-X\	4een\	4en\ 4b-\	de	.
=25	=25	=25	=25	=25
*^	*	*	*	*
2B-/ 2d/	1F\	4ff/	1f\	coe-	.
.	.	4b-/	.	.	.
2A/ 2e-/	.	4.dd/	.	.	.
.	.	8cc/	.	.	.
*v	*v	*	*	*	*
*	*v	*v	*	*
=26	=26	=26	=26
4B-\ 4d\	4f/ 4b-/	-lis.	.
4r	4r	.	.
2B-^<;>/	2r;>	.	.
=27||	=27||	=27||	=27||
*k[b-e-a-]	*k[b-e-a-]	*	*
*M3/4	*M3/4	*	*
*	*^	*	*
!	!LO:TX:a:B:t=Adagio.	!	!	!
[>2.E-\	4g/	8g\L	Et	.
.	.	8e-\	.	.
.	4a-/	8f\	in-	.
.	.	8e-\	.	.
.	4an/	8f#X\	-car-	.
.	.	8e-\J	.	.
!!LO:LB:g=original
=28	=28	=28	=28	=28
2.E-\]	2b-/	8g\L	-na-	.
.	.	8e-\	.	.
.	.	8g\	.	.
.	.	8e-\	.	.
.	4ee-/	8g\	-tus	.
.	.	8e-\J	.	.
=29	=29	=29	=29	=29
2.BB-\ 2.B-\	4dd/	8a-\L	est	.
.	.	8d\	.	.
.	4cc/	8a-\	.	.
.	.	8d\	.	.
.	4b-/	8a-\	de	.
.	.	8d\J	.	.
=30	=30	=30	=30	=30
4E-\	4b-/	8g\L	spi-	.
.	.	8e-\	.	.
4G\	4b-/	8g\	-ri-	.
.	.	8e-\	.	.
4E-\	4cc/	8g\	-tu	.
.	.	8e-\J	.	.
=31	=31	=31	=31	=31
2.ryy	4dd/	8a-\L	san-	.
.	.	8d\	.	.
.	4cc/	8a-\	-cto	.
.	.	8d\	.	.
.	4b-/	8a-\	ex	.
.	.	8d\J	.	.
=32	=32	=32	=32	=32
4E-\	4b-/	8g\L	Ma-	.
.	.	8e-\	.	.
4G\	4b-/	8g\	-ri-	.
.	.	8e-\	.	.
4C\	4ee-/	8g\	-a	.
.	.	8e-\J	.	.
!!LO:LB:g=original
=33	=33	=33	=33	=33
2.FF\ 2.F\	4dd/	8f\L	Vir-	.
.	.	8d\	.	.
.	4an/	8f\	-gi-	.
.	.	8d\	.	.
.	8b-/L	8f\	-ne	.
.	8b-/J	8d\J	et	.
=34	=34	=34	=34	=34
*^	*	*	*	*
2B-/	2.F\	2dd/	8en\L	Ho-	.
.	.	.	8g\	.	.
.	.	.	8e\	.	.
.	.	.	8g\	.	.
4An/	.	4cc/	8e-X\	-mo	.
.	.	.	8f\J	.	.
*v	*v	*	*	*	*
=35	=35	=35	=35	=35
[<2.BB-\ [>2.B-\	2b-/	8d\L	fac-	.
.	.	8f\	.	.
.	.	8d\	.	.
.	.	8f\	.	.
.	4anX/	8e-\ 8anX\	-tus	.
.	.	8g-X\J	.	.
*	*v	*v	*	*
=36	=36	=36	=36
2.BB-;<\] 2.B-\]	2.d;>/ 2.f/ 2.b-/	est.	.
!!LO:LB:g=original
=37	=37	=37	=37
*	*^	*	*
!	!LO:TX:t=P:problem=takt przedzielony kreską	!	!	!
2.B-/	4cc/	8en\L	Cru-	.
.	.	8g\	.	.
.	4dd-X/	8e\	.	.
.	.	8g\	.	.
.	4cc/	8e\	-ci-	.
.	.	8g\J	.	.
=38	=38	=38	=38	=38
2.A-/	2cc/	8f\L	-fic-	.
.	.	8c\	.	.
.	.	8f\	.	.
.	.	8c\	.	.
.	4cc-X/	8f\	-sus	.
.	.	8e-X\J	.	.
!!LO:LB:g=original
=39	=39	=39	=39	=39
2.A-/	4b-/	8d\L	pas-	.
.	.	8f\	.	.
.	4cc/	8d\	.	.
.	.	8f\	.	.
.	4b-/	8d\	-sus	.
.	.	8f\J	.	.
=40	=40	=40	=40	=40
2G/	2b-/	8e-\L	et	.
.	.	8B-\	.	.
.	.	8e-\	.	.
.	.	8B-\	.	.
4AA-\ 4A-\	4a-/	8f\	se-	.
.	.	8c\J	.	.
=41	=41	=41	=41	=41
2.BB-\	2.g/	8e-\L	-pul-	.
.	.	8B-\	.	.
.	.	8e-\	.	.
.	.	8B-\	.	.
.	.	8e-\	.	.
.	.	8B-\J	.	.
=42	=42	=42	=42	=42
2.BB-\ 2.A-\	2.f/	8d\L	-tus	.
.	.	8B-\	.	.
.	.	8d\	.	.
.	.	8B-\	.	.
.	.	8d\	.	.
.	.	8B-\J	.	.
*	*v	*v	*	*
=43	=43	=43	=43
*^	*	*	*
!	!	!LO:TX:b:t=h	!	!
!	!	!LO:TX:b:t=e	!	!
2.G/	2.E-\	2.B-/ 2.e-/ 2.g/	est	.
*v	*v	*	*	*
=44||	=44||	=44||	=44||
*ok[anb-e-]	*ok[b-e-an]	*	*
*k[b-e-]	*k[b-e-]	*	*
*M4/4	*M4/4	*	*
*met(c)	*met(c)	*	*
!	!LO:TX:a:B:t=Tempo Imo	!	!
4r	4r	.	.
4E-\ 4B-\	4e-/ 4g/	.	.
4C\ 4c\	4e-/ 4g/	.	.
4F\ 4c\	4f/ 4a/	.	.
!!LO:LB:g=original
=45	=45	=45	=45
2BB-\ 2B-\	2d/ 2f/ 2b-/	.	.
2FF\ 2F\	2e-/ 2f/ 2a/	.	.
=46	=46	=46	=46
*	*^	*	*
2BB-\ 2B-\	(>4b-/	2d\ 2f\	Et	.
.	4dd/)	.	.	.
4E-\	4c/ 4g/ 4cc/	2ryy	re-	.
4En\	4c/ 4g/ 4b-/	.	-su-	.
*	*v	*v	*	*
=47	=47	=47	=47
2F\	(>2c/ 2f/ 2a/	-re-	.
2C\ 2B-\	2c/) 2en/ 2g/	.	.
=48	=48	=48	=48
4F\ 4A\	4c/ 4f/	-xit	.
4F\	4f/	.	.
4A\	4a/	.	.
4B-\	4b-/	.	.
=49	=49	=49	=49
2C\ 2c\	2e-/ 2g/ 2cc/	et	.
2GG\ 2G\	2f/ 2g/ 2bn/	as-	.
=50	=50	=50	=50
*	*^	*	*
2CC/ 2C/	(>4cc/	2e-\ 2g\	-cen-	.
.	4ee-/)	.	.	.
4DD/ 4D/	4f/ 4g/ 4bn/ 4dd/	2ryy	-dit	.
4EE-/ 4E-/	4e-/ 4g/ 4cc/	.	in	.
*	*v	*v	*	*
!!LO:LB:g=original
=51	=51	=51	=51
2FF/ 2F/	(>2d/ 2f/ 2b-X/	coe-	.
2FF/ 2F/	2e-/) 2f/ 2a/	.	.
=52	=52	=52	=52
2BB-\ 2B-\	2d/ 2f/ 2b-/	-lum	.
!	!	!	!LO:DY:a:rj
2r	4.f/	.	p
.	8f/	.	.
=53	=53	=53	=53
2B-\	2b-\ 2dd\	Et	.
2d\	2b-\ 2dd\	in	.
=54	=54	=54	=54
*	*^	*	*
2f\	2cc/	2b-\	Spi-	.
2F\	2cc/	2a\	-ri-	.
*	*v	*v	*	*
=55	=55	=55	=55
2G\	2g/ 2b-/	-tum	.
2B-\	2g/ 2b-/	Sanc-	.
=56	=56	=56	=56
4d\	4f#X/ 4a/	-tam	.
!	!	!	!LO:DY:a
4r	4d/	.	f
2r	4f#/	.	.
.	4a/	.	.
=57	=57	=57	=57
2G\	(>2d/ 2g/ 2b-/	San-	.
2F\	2d/) 2g/ 2bn/	.	.
!!LO:LB:g=original
=58	=58	=58	=58
2E-\	2c/ 2g/ 2cc/	-ctam	.
4D\	(>[<4g\ 4bn\ 4dd\	Ec-	.
4C\	4g\]) 4cc\ 4ee-\	.	.
=59	=59	=59	=59
2D\	2g/ 2b-X/ 2dd/	-cle-	.
2DD/ 2D/	2c/ 2d/ 2f#X/	-si-	.
=60	=60	=60	=60
2GG/ 2G/	2B-/ 2d/ 2g/	-am	.
4r	4r	.	.
4F/	4f/	et	.
=61	=61	=61	=61
2BB-\ 2B-\	2d/ 2f/ 2b-/	vi-	.
2FF\ 2F\	2f/ 2a/ 2cc/	-tam	.
=62	=62	=62	=62
2BB-\ 2B-\	(<4.d/ 4.f/ (>4.dd/	ven-	.
.	8e-/) 8f/ 8cc/)	.	.
4BB-\ 4B-\	4d/ 4f/ 4b-/	-tu-	.
4GG\ 4G\	4g/ 4b-/ 4dd/	-ri	.
=63	=63	=63	=63
*	*^	*	*
2.EE-/ 2.E-/	2.cc/ 2.gg/	2.g\ 2.b-\	soe-	.
4FF/ 4F/	4cc\ 4ff\	4f\ 4a\	-cu-	.
*	*v	*v	*	*
=64	=64	=64	=64
4BB-\ 4B-\	4d/ 4f/ 4b-/	-li	.
4F/	4f/	.	.
4B-/	4b-/	.	.
4d/	4dd/	.	.
!!LO:LB:g=original
=65	=65	=65	=65
1FF/ 1F/	1f\ 1a\ 1cc\ 1ff\	A-	.
=66	=66	=66	=66
4BB-\ 4B-\	4f\ 4b-\ 4dd\	-men	.
4F\ 4f\	4r	.	.
4D\ 4d\	2r	.	.
4BB-\ 4B-\	.	.	.
=67	=67	=67	=67
1E-\ 1G\ 1c\	(>(>(<1g/ 1b-/ 1cc/	A-	.
=68	=68	=68	=68
1D\ 1A\ 1d\	1f\))) 1a\ 1cc\ 1ff\	.	.
=69	=69	=69	=69
4BB-\ 4B-\	4d/ 4f/ 4b-/	-men	.
4r	4r	.	.
2r	2r	.	.
!!LO:LB:g=original
==	==	==	==
*-	*-	*-	*-
!!!system-decoration: [(s1,s2)]
!!!RDF**kern: < = below
!!!RDF**kern: > = above
!!!ENC: Tomasz Grochalski
!!!END: 2020-11-08
!!!ENC: Marta Chmielewska
!!!END: 2021-11-15
